app/assets/images/general/icons/header/email.svg

<svg width="17" height="11" viewBox="0 0 17 11" fill="none" xmlns="http://www.w3.org/2000/svg">
<g clip-path="url(#clip0)">
<path d="M15.2999 -0.000564618H1.69481C1.2708 -0.022275 0.854601 0.110126 0.537073 0.367737C0.219544 0.625348 0.0264713 0.987248 0 1.37444V9.62444C0.0286279 10.0109 0.222331 10.3716 0.539358 10.6288C0.856385 10.886 1.27135 11.0191 1.69481 10.9994H15.2999C15.7234 11.0191 16.1383 10.886 16.4553 10.6288C16.7724 10.3716 16.9661 10.0109 16.9947 9.62444V1.37444C16.9661 0.987989 16.7724 0.627292 16.4553 0.370088C16.1383 0.112883 15.7234 -0.0202312 15.2999 -0.000564618ZM15.2999 2.74944L8.49947 6.18742L1.69481 2.74944V1.37444L8.49523 4.81242L15.2957 1.37444L15.2999 2.74944Z" fill="#12784A"/>
</g>
<defs>
<clipPath id="clip0">
<rect y="-0.000488281" width="17" height="11" fill="white"/>
</clipPath>
</defs>
</svg>

<svg width="17" height="11" fill="none" xmlns="http://www.w3.org/2000/svg"><g clip-path="url(#clip0)"><path d="M15.3 0H1.695A1.7 1.7 0 00.537.367C.22.625.027.988 0 1.374v8.25c.029.387.222.748.54 1.005.316.257.731.39 1.155.37H15.3c.423.02.838-.113 1.155-.37.317-.257.511-.618.54-1.005v-8.25a1.433 1.433 0 00-.54-1.004A1.712 1.712 0 0015.3 0zm0 2.75L8.5 6.186 1.694 2.75V1.374l6.8 3.438 6.8-3.438.005 1.375z" fill="#12784A"/></g><defs><clipPath id="clip0"><path fill="#fff" d="M0 0h17v11H0z"/></clipPath></defs></svg>
